X:32
T:Cuz Teahan's Favorite
C:Terence "Cuz" Teahan
B:Terry "Cuz" Teahan "Sliabh Luachra on Parade" 1980
Z:Patrick Cavanagh
M:12/8
L:1/8
R:Slide
K:D
B | efe B2A GFE B2A | FED A2D d2F A2B | 
efe B2A GFE B2A | FED FAF E3 E2 :| 
A | B2e ede f2a afa | b2a fgf e2d B2A | 
[1]B2e ede f2a afa | b2a fgf e3 e2 :| 
[2]f2f f2e e2d B2A | FED FAF E3 E3 || 

